X:1
T:Czerny No. 1
L:1/4
Q:1/4=120
M:4/4
I:linebreak $
K:C
V:1 treble nm="Piano" snm="Pno."
V:2 treble 
V:3 treble 
V:1
"_1" c4 |"_2" d2"_3" e2 | c4 | d2 e2 | c2 e2 |"_5" g2"_4" f2 |$ e2 d2 | c4 :: x4 |"_4" f2"_2" d2 | %10
 e2 f2 | g2 e2 | d2 e2 |$ f2 d2 | c2 e2 |"_1" c4 :| %16
V:2
 x4 | x4 | x4 | x4 | x4 | x4 |$ x4 | x4 ::"_2" d2"_3" e2 | x4 | x4 | x4 | x4 |$ x4 | x4 | x4 :| %16
V:3
"_5" C2"_3" E2 |"_1" G4 | C2 E2 | G4 |"_5" C4 | E2 F2 |$ G2 F2 |"_3" E4 ::"_1" G4 | G4 | %10
"_5" C2"_4" D2 |"_3" E2"_5" C2 |"_1" G4 |$ G4 | E2 G2 |"_5" C4 :| %16
%%score { ( 1 2 ) | 3 } 
